packages/icons/src/SVG/user-admin-solid.svg

<svg width="12" height="12" viewBox="0 0 12 12" fill="none" xmlns="http://www.w3.org/2000/svg">
<path fill-rule="evenodd" clip-rule="evenodd" d="M6 12C1.18752 9.81818 0.499983 4.63636 0.5 1.90909C0.640234 1.88591 0.779476 1.86372 0.918314 1.84159C2.41306 1.60333 3.86117 1.37251 6 0C8.13883 1.37251 9.58694 1.60333 11.0817 1.84159C11.2205 1.86372 11.3598 1.88591 11.5 1.90909C11.5 4.63636 10.8125 9.81818 6 12ZM8.50355 8.77736C7.87589 9.60121 7.05912 10.3333 6 10.8878C4.94088 10.3333 4.12411 9.60121 3.49645 8.77736C3.51702 8.77247 3.53709 8.76758 3.55664 8.7627C3.59766 8.74512 3.63867 8.73047 3.67969 8.71875C4.07227 8.60156 4.36816 8.4668 4.56738 8.31445C4.7666 8.16211 4.88965 7.96582 4.93652 7.72559C4.76074 7.54395 4.59961 7.32715 4.45312 7.0752C4.30664 6.82324 4.18359 6.55371 4.08398 6.2666C3.97852 5.97949 3.89648 5.68652 3.83789 5.3877C3.7793 5.08301 3.75 4.78711 3.75 4.5C3.75 4.08984 3.80859 3.74121 3.92578 3.4541C4.04297 3.16699 4.2041 2.93555 4.40918 2.75977C4.61426 2.57812 4.85156 2.44922 5.12109 2.37305C5.39648 2.29102 5.68945 2.25 6 2.25C6.31055 2.25 6.60352 2.29102 6.87891 2.37305C7.14844 2.44922 7.38574 2.57812 7.59082 2.75977C7.7959 2.93555 7.95703 3.16699 8.07422 3.4541C8.19141 3.74121 8.25 4.08984 8.25 4.5C8.25 4.78711 8.2207 5.08301 8.16211 5.3877C8.10352 5.68652 8.02148 5.97949 7.91602 6.2666C7.81641 6.55371 7.69336 6.82324 7.54688 7.0752C7.40039 7.32715 7.23926 7.54395 7.06348 7.72559C7.11035 7.96582 7.2334 8.16211 7.43262 8.31445C7.63184 8.4668 7.92774 8.60156 8.32031 8.71875C8.36133 8.73047 8.40234 8.74512 8.44336 8.7627C8.46291 8.76758 8.48298 8.77247 8.50355 8.77736Z" fill="#4C505B"/>
</svg>

<!-- Generated by IcoMoon.io -->
<svg version="1.1" xmlns="http://www.w3.org/2000/svg" width="12" height="12" viewBox="0 0 12 12">
<title>user-admin-solid</title>
<path d="M6 12c4.813-2.182 5.5-7.364 5.5-10.091-0.14-0.023-0.28-0.045-0.418-0.067-1.495-0.238-2.943-0.469-5.082-1.842-2.139 1.373-3.587 1.603-5.082 1.842-0.139 0.022-0.278 0.044-0.418 0.067-0 2.727 0.688 7.909 5.5 10.091zM8.504 8.777c-0.628 0.824-1.444 1.556-2.504 2.11-1.059-0.554-1.876-1.287-2.504-2.11 0.021-0.005 0.041-0.010 0.060-0.015 0.041-0.018 0.082-0.032 0.123-0.044 0.393-0.117 0.688-0.252 0.888-0.404s0.322-0.349 0.369-0.589c-0.176-0.182-0.337-0.398-0.483-0.65s-0.27-0.521-0.369-0.809c-0.105-0.287-0.188-0.58-0.246-0.879-0.059-0.305-0.088-0.601-0.088-0.888 0-0.41 0.059-0.759 0.176-1.046s0.278-0.519 0.483-0.694c0.205-0.182 0.442-0.311 0.712-0.387 0.275-0.082 0.568-0.123 0.879-0.123s0.604 0.041 0.879 0.123c0.27 0.076 0.507 0.205 0.712 0.387 0.205 0.176 0.366 0.407 0.483 0.694s0.176 0.636 0.176 1.046c0 0.287-0.029 0.583-0.088 0.888-0.059 0.299-0.141 0.592-0.246 0.879-0.1 0.287-0.223 0.557-0.369 0.809s-0.308 0.469-0.483 0.65c0.047 0.24 0.17 0.437 0.369 0.589s0.495 0.287 0.888 0.404c0.041 0.012 0.082 0.026 0.123 0.044 0.020 0.005 0.040 0.010 0.060 0.015z"></path>
</svg>
